X: 27918
T: Mountain Road, The
R: reel
M: 4/4
K: Dmajor
F2AF BFAF|F2AF EFDE|F2AF BFAF|G2FG EFDE|
F2AF BFAF|F2AF EFDE|FAA2 BAFB|ABde fddc||
d3B ADFA|dcde fgfe|dcdB ADFA|G2FG EFDc|
dcdB ADFA|dcde fgfe|dcdB ADFA|G2FG EFDc||
dcde fgfe|dfeg fB B2|dcde f/e/d ec|dBAF EFDc|
dcde fgfe|dfeg fB B2|gBfB e/f/e dA|Bcde fddg||
f2 af bfaf|f2 af efde|f2 af bfaf|g2 fg efde|
f2 af bfaf|f2 af efde|fa ~a2 a3f|g3f egfe||
d3B ADFA|dcde fgfe|dcdB ADFA|G2FG EFDc|
dcdB ADFA|dcde fgfe|dcdB ADFA|G2FG EFDE||

